img/icon6.svg

<svg width="52" height="32" viewBox="0 0 52 32" fill="none" xmlns="http://www.w3.org/2000/svg">
<path fill-rule="evenodd" clip-rule="evenodd" d="M32 2H2V25H32V2ZM0 0V27H34V0H0Z" fill="url(#paint0_linear)"/>
<path fill-rule="evenodd" clip-rule="evenodd" d="M50 12.395L42.6667 5H37V25H50V12.395ZM43.5 3L52 11.5714V27H35V3H43.5Z" fill="url(#paint1_linear)"/>
<path d="M49 27C49 29.7614 46.7614 32 44 32C41.2386 32 39 29.7614 39 27C39 24.2386 41.2386 22 44 22C46.7614 22 49 24.2386 49 27Z" fill="white"/>
<path fill-rule="evenodd" clip-rule="evenodd" d="M44 30C45.6569 30 47 28.6569 47 27C47 25.3431 45.6569 24 44 24C42.3431 24 41 25.3431 41 27C41 28.6569 42.3431 30 44 30ZM44 32C46.7614 32 49 29.7614 49 27C49 24.2386 46.7614 22 44 22C41.2386 22 39 24.2386 39 27C39 29.7614 41.2386 32 44 32Z" fill="url(#paint2_linear)"/>
<path d="M13 27C13 29.7614 10.7614 32 8 32C5.23858 32 3 29.7614 3 27C3 24.2386 5.23858 22 8 22C10.7614 22 13 24.2386 13 27Z" fill="white"/>
<path fill-rule="evenodd" clip-rule="evenodd" d="M8 30C9.65685 30 11 28.6569 11 27C11 25.3431 9.65685 24 8 24C6.34315 24 5 25.3431 5 27C5 28.6569 6.34315 30 8 30ZM8 32C10.7614 32 13 29.7614 13 27C13 24.2386 10.7614 22 8 22C5.23858 22 3 24.2386 3 27C3 29.7614 5.23858 32 8 32Z" fill="url(#paint3_linear)"/>
<defs>
<linearGradient id="paint0_linear" x1="-1.41667" y1="13.2787" x2="35.5256" y2="13.2787" gradientUnits="userSpaceOnUse">
<stop stop-color="#5B40D7"/>
<stop offset="1" stop-color="#E85F62"/>
</linearGradient>
<linearGradient id="paint1_linear" x1="34.2917" y1="14.8033" x2="52.7628" y2="14.8033" gradientUnits="userSpaceOnUse">
<stop stop-color="#5B40D7"/>
<stop offset="1" stop-color="#E85F62"/>
</linearGradient>
<linearGradient id="paint2_linear" x1="38.5833" y1="26.918" x2="49.4487" y2="26.918" gradientUnits="userSpaceOnUse">
<stop stop-color="#5B40D7"/>
<stop offset="1" stop-color="#E85F62"/>
</linearGradient>
<linearGradient id="paint3_linear" x1="2.58333" y1="26.918" x2="13.4487" y2="26.918" gradientUnits="userSpaceOnUse">
<stop stop-color="#5B40D7"/>
<stop offset="1" stop-color="#E85F62"/>
</linearGradient>
</defs>
</svg>

<svg width="52" height="32" fill="none" xmlns="http://www.w3.org/2000/svg"><path fill-rule="evenodd" clip-rule="evenodd" d="M32 2H2v23h30V2zM0 0v27h34V0H0z" fill="url(#paint0_linear)"/><path fill-rule="evenodd" clip-rule="evenodd" d="M50 12.395L42.667 5H37v20h13V12.395zM43.5 3l8.5 8.571V27H35V3h8.5z" fill="url(#paint1_linear)"/><path d="M49 27a5 5 0 11-10 0 5 5 0 0110 0z" fill="#fff"/><path fill-rule="evenodd" clip-rule="evenodd" d="M44 30a3 3 0 100-6 3 3 0 000 6zm0 2a5 5 0 100-10 5 5 0 000 10z" fill="url(#paint2_linear)"/><path d="M13 27a5 5 0 11-10 0 5 5 0 0110 0z" fill="#fff"/><path fill-rule="evenodd" clip-rule="evenodd" d="M8 30a3 3 0 100-6 3 3 0 000 6zm0 2a5 5 0 100-10 5 5 0 000 10z" fill="url(#paint3_linear)"/><defs><linearGradient id="paint0_linear" x1="-1.417" y1="13.279" x2="35.526" y2="13.279" gradientUnits="userSpaceOnUse"><stop stop-color="#5B40D7"/><stop offset="1" stop-color="#E85F62"/></linearGradient><linearGradient id="paint1_linear" x1="34.292" y1="14.803" x2="52.763" y2="14.803" gradientUnits="userSpaceOnUse"><stop stop-color="#5B40D7"/><stop offset="1" stop-color="#E85F62"/></linearGradient><linearGradient id="paint2_linear" x1="38.583" y1="26.918" x2="49.449" y2="26.918" gradientUnits="userSpaceOnUse"><stop stop-color="#5B40D7"/><stop offset="1" stop-color="#E85F62"/></linearGradient><linearGradient id="paint3_linear" x1="2.583" y1="26.918" x2="13.449" y2="26.918" gradientUnits="userSpaceOnUse"><stop stop-color="#5B40D7"/><stop offset="1" stop-color="#E85F62"/></linearGradient></defs></svg>
